!! 00000] TT[WS
!!!OTL: Riben qiangdao zhen keheng
!!!ARE: Asia, China, Shanxi Wutai
!! Ethnic Group: Han
!! WII, 241 (1)
!!!SCT: J0762
!!!YEM: Copyright 1995, estate of Helmut Schaffrath.
**kern
*ICvox
*Ivox
*M2/4
*k[b-]
*F:
{8cc
16cc
16cc
8a
8cc
=1
8ff
16ff
16dd
8cc
8a
=2
8dd
16dd
16ff
8cc
8a
=3
16g
16a
16g
16f
4g}
=4
{8g
16g
16a
8ff
16ff
16dd
=5
16a
16cc
16a
16g
8.f
16g
=6
8a
16a
16a
16cc
16a
16g
16f
=7
8.d
16c
4d}
==
!!!AGN: Xiaodiao. XÅshi, Xinminge
!!!ONB: ESAC (Essen Associative Code) Database: CHINA
!!!AMT: simple duple
!!!AIN: vox
!!!EED: Helmut Schaffrath
!!!EEV: 1.0
*-
